www/assets/icons/scuba_diving.svg

<svg xmlns="http://www.w3.org/2000/svg" width="24" height="24" viewBox="0 0 24 24" fill='currentColor'><path d="M1 12.5c0-1.1.9-2 2-2s2 .9 2 2-.9 2-2 2-2-.9-2-2m7.89-2.89 4.53-1.21-.78-2.9-4.53 1.21c-.8.21-1.28 1.04-1.06 1.84s1.04 1.28 1.84 1.06M20.5 5.4 23 2.5l-1-1-3 3-2 4-9.48 2.87c-.82.2-1.39.89-1.5 1.68l-.78 4.45-2.84 3.8L4 22.5l3-4 1.14-3.14L14 13.5l5-3.5z"/></svg>

<svg width="24" height="24" viewBox="0 0 24 24" xmlns="http://www.w3.org/2000/svg" fill='currentColor'><path d="M1 12.5C1 11.4 1.9 10.5 3 10.5C4.1 10.5 5 11.4 5 12.5C5 13.6 4.1 14.5 3 14.5C1.9 14.5 1 13.6 1 12.5ZM8.89 9.61L13.42 8.4L12.64 5.5L8.11 6.71C7.31 6.92 6.83 7.75 7.05 8.55C7.27 9.35 8.09 9.83 8.89 9.61ZM20.5 5.4L23 2.5L22 1.5L19 4.5L17 8.5L7.52 11.37C6.7 11.57 6.13 12.26 6.02 13.05L5.24 17.5L2.4 21.3L4 22.5L7 18.5L8.14 15.36L14 13.5L19 10L20.5 5.4Z"/></svg>
